app/[lang]/(home)/(new-home)/assets/db-appicons/mongoicon.svg

<svg
  width="49"
  height="49"
  viewBox="0 0 49 49"
  fill="none"
  xmlns="http://www.w3.org/2000/svg"
>
  <path
    d="M25.2459 46.9106L24.0593 46.5172C24.0593 46.5172 24.2173 40.5132 22.0448 40.0913C20.6228 38.4355 22.2549 -30.5996 27.4532 39.8559C26.4669 40.3562 25.7122 41.2184 25.347 42.2623C25.1513 43.804 25.1174 45.3619 25.2459 46.9106Z"
    fill="#88851F"
  />
  <path
    d="M25.8874 41.1106C29.0467 38.7323 31.4662 35.5063 32.8647 31.8074C34.2631 28.1084 34.5831 24.0886 33.7874 20.215C31.4648 9.96871 25.9648 6.60014 25.3723 5.31402C24.8611 4.51316 24.4247 3.66692 24.0688 2.78601L24.5064 31.3351C24.5064 31.3351 23.5995 40.0599 25.8874 41.1106Z"
    fill="#2D9F2C"
  />
  <path
    d="M23.4558 41.4894C23.4558 41.4894 13.7846 34.9024 14.3439 23.2498C14.3961 19.7369 15.2015 16.2761 16.7059 13.1012C18.2102 9.92625 20.3784 7.11112 23.064 4.84595C23.3778 4.57932 23.6272 4.24504 23.7933 3.86822C23.9594 3.49139 24.0379 3.08183 24.023 2.67029C24.625 3.96589 24.5271 22.0143 24.5903 24.1252C24.8352 32.3365 24.1336 39.9394 23.4558 41.4894Z"
    fill="#5FB765"
  />
</svg>

<svg xmlns="http://www.w3.org/2000/svg" fill="none" viewBox="0 0 49 49">
  <path
    fill="#88851F"
    d="m25.25 46.91-1.2-.4s.17-6-2-6.42c-1.43-1.65.2-70.69 5.4-.23a4.28 4.28 0 0 0-2.1 2.4c-.2 1.54-.23 3.1-.1 4.65Z"
  />
  <path
    fill="#2D9F2C"
    d="M25.89 41.11a20.9 20.9 0 0 0 7.9-20.9C31.46 9.97 25.96 6.6 25.37 5.31c-.5-.8-.95-1.64-1.3-2.52l.44 28.55s-.91 8.72 1.38 9.77Z"
  />
  <path
    fill="#5FB765"
    d="M23.46 41.49s-9.68-6.59-9.12-18.24a24.55 24.55 0 0 1 8.72-18.4 2.73 2.73 0 0 0 .96-2.18c.6 1.3.5 19.34.57 21.46.25 8.2-.46 15.8-1.13 17.36Z"
  />
</svg>
